packages/ffe-icons/icons/filled/lg/remove_from_queue.svg

<svg xmlns="http://www.w3.org/2000/svg" height="40" viewBox="0 -960 960 960" width="40"><path d="M355.128-496.36h249.744q10.846 0 17.986-7.146 7.141-7.146 7.141-17.999 0-10.854-7.141-17.982-7.14-7.128-17.986-7.128H355.128q-10.846 0-17.986 7.146-7.141 7.146-7.141 18 0 10.853 7.141 17.981 7.14 7.128 17.986 7.128ZM162.565-220.001q-25.788 0-44.176-18.388t-18.388-44.176v-474.87q0-25.788 18.388-44.176t44.176-18.388h634.87q25.788 0 44.176 18.388t18.388 44.176v474.87q0 25.788-18.388 44.176t-44.176 18.388H615.127v48.718q0 13.461-8.91 22.371-8.911 8.911-22.372 8.911h-207.69q-13.461 0-22.372-8.911-8.91-8.91-8.91-22.371v-48.718H162.565Z"/></svg>

<svg xmlns="http://www.w3.org/2000/svg" viewBox="0 -960 960 960" width="32" height="32"><path d="M355.13-496.36h249.74q10.85 0 17.99-7.15 7.14-7.14 7.14-18 0-10.85-7.14-17.98-7.14-7.12-17.99-7.12H355.13q-10.85 0-17.99 7.14-7.14 7.15-7.14 18t7.14 17.98q7.14 7.13 17.99 7.13ZM162.57-220q-25.79 0-44.18-18.39T100-282.57v-474.86q0-25.79 18.39-44.18T162.57-820h634.86q25.79 0 44.18 18.39T860-757.43v474.86q0 25.79-18.39 44.18T797.43-220h-182.3v48.72q0 13.46-8.91 22.37T583.84-140H376.16q-13.47 0-22.38-8.91-8.91-8.91-8.91-22.37V-220h-182.3Z"/></svg>
